packages/ffe-icons/icons/filled/md/point_scan.svg

<svg xmlns="http://www.w3.org/2000/svg" height="24" viewBox="0 -960 960 960" width="24"><path d="M480-410.001q-29.154 0-49.576-20.423-20.423-20.422-20.423-49.576t20.423-49.576q20.422-20.423 49.576-20.423t49.576 20.423q20.423 20.422 20.423 49.576t-20.423 49.576Q509.154-410.001 480-410.001Zm-29.999-259.998v-120q0-12.75 8.628-21.375 8.629-8.625 21.384-8.625 12.756 0 21.371 8.625 8.615 8.625 8.615 21.375v120q0 12.749-8.628 21.374Q492.742-640 479.987-640q-12.756 0-21.371-8.625-8.615-8.625-8.615-21.374Zm0 499.998v-120q0-12.749 8.628-21.374Q467.258-320 480.013-320q12.756 0 21.371 8.625 8.615 8.625 8.615 21.374v120q0 12.75-8.628 21.375-8.629 8.625-21.384 8.625-12.756 0-21.371-8.625-8.615-8.625-8.615-21.375Zm219.998-339.998h120q12.75 0 21.375 8.628 8.625 8.629 8.625 21.384 0 12.756-8.625 21.371-8.625 8.615-21.375 8.615h-120q-12.749 0-21.374-8.628Q640-467.258 640-480.013q0-12.756 8.625-21.371 8.625-8.615 21.374-8.615Zm-499.998 0h120q12.749 0 21.374 8.628Q320-492.742 320-479.987q0 12.756-8.625 21.371-8.625 8.615-21.374 8.615h-120q-12.75 0-21.375-8.628-8.625-8.629-8.625-21.384 0-12.756 8.625-21.371 8.625-8.615 21.375-8.615Z"/></svg>

<svg xmlns="http://www.w3.org/2000/svg" height="24" viewBox="0 -960 960 960" width="24"><path d="M480-410q-29.15 0-49.58-20.42Q410-450.85 410-480t20.42-49.58Q450.85-550 480-550t49.58 20.42Q550-509.15 550-480t-20.42 49.58Q509.15-410 480-410Zm-30-260v-120q0-12.75 8.63-21.37 8.63-8.63 21.38-8.63 12.76 0 21.37 8.63Q510-802.75 510-790v120q0 12.75-8.63 21.38-8.63 8.62-21.38 8.62-12.76 0-21.37-8.62Q450-657.25 450-670Zm0 500v-120q0-12.75 8.63-21.38 8.63-8.62 21.38-8.62 12.76 0 21.37 8.62Q510-302.75 510-290v120q0 12.75-8.63 21.37-8.63 8.63-21.38 8.63-12.76 0-21.37-8.63Q450-157.25 450-170Zm220-340h120q12.75 0 21.37 8.63 8.63 8.63 8.63 21.38 0 12.76-8.63 21.37Q802.75-450 790-450H670q-12.75 0-21.38-8.63-8.62-8.63-8.62-21.38 0-12.76 8.62-21.37Q657.25-510 670-510Zm-500 0h120q12.75 0 21.38 8.63 8.62 8.63 8.62 21.38 0 12.76-8.62 21.37Q302.75-450 290-450H170q-12.75 0-21.37-8.63-8.63-8.63-8.63-21.38 0-12.76 8.63-21.37Q157.25-510 170-510Z"/></svg>
